packages/core/src/svgs/maps.svg

<svg width="24" height="24" viewBox="0 0 24 24" fill="none" xmlns="http://www.w3.org/2000/svg">
<g clip-path="url(#clip0_31_13511)">
<path d="M0 0H24V24H0V0Z" fill="#77D563"/>
<path d="M10.6073 4.80875C8.30592 5.26733 8.3102 6.09875 8.31449 7.08018V7.20018L9.1202 7.0459C9.05592 6.61733 9.28306 5.82018 10.7059 5.5459C12.1031 5.27161 12.5145 5.94875 12.5616 6.40304L13.3331 6.25733C13.3502 5.58875 12.8231 4.36733 10.6073 4.80875ZM7.0502 13.7659L5.29306 15.5359L4.4702 11.1216L7.0502 13.7659ZM5.52877 16.8302L5.41306 16.2002L7.4402 14.1645L10.9716 17.7859L7.79163 18.3945C7.54023 18.4414 7.28203 18.4382 7.0319 18.3848C6.78178 18.3315 6.54469 18.2292 6.33432 18.0837C6.12395 17.9383 5.94445 17.7527 5.80619 17.5375C5.66793 17.3224 5.57365 17.082 5.52877 16.8302ZM16.0202 16.8259L11.6273 17.6573L10.8345 16.843L13.4659 14.203L16.0202 16.8173V16.8259ZM18.1373 16.423L16.6759 16.7016L13.8559 13.813L16.5345 11.1259L19.7145 14.443C19.7272 14.9051 19.5757 15.3567 19.287 15.7176C18.9982 16.0785 18.5909 16.3254 18.1373 16.4145V16.423ZM18.7159 8.94018L19.5602 13.483L16.9288 10.7316L18.7159 8.94018ZM18.4716 7.62018L18.5916 8.2759L16.5431 10.333L13.9588 7.62447L15.3559 6.21875L16.2131 6.0559C16.4641 6.00955 16.7219 6.0133 16.9715 6.06693C17.2212 6.12055 17.4577 6.223 17.6676 6.36837C17.8775 6.51375 18.0566 6.69918 18.1946 6.91402C18.3326 7.12885 18.4267 7.36884 18.4716 7.62018ZM7.84306 7.65018L14.3873 6.40733L10.4659 10.3373L7.84734 7.65018H7.84306ZM5.86306 8.03161L7.19163 7.77447L10.0759 10.7316L7.44449 13.3716L4.29449 10.1488C4.24577 9.66398 4.37949 9.17846 4.66953 8.78698C4.95957 8.3955 5.38511 8.12619 5.86306 8.03161ZM13.5645 8.01875L16.1531 10.723L13.4702 13.4145L10.8559 10.7359L13.5645 8.01875ZM11.3573 13.7145C11.3573 13.9418 11.267 14.1598 11.1063 14.3206C10.9455 14.4813 10.7275 14.5716 10.5002 14.5716C10.2729 14.5716 10.0549 14.4813 9.89411 14.3206C9.73336 14.1598 9.64306 13.9418 9.64306 13.7145C9.64306 13.4871 9.73336 13.2691 9.89411 13.1084C10.0549 12.9476 10.2729 12.8573 10.5002 12.8573C10.7275 12.8573 10.9455 12.9476 11.1063 13.1084C11.267 13.2691 11.3573 13.4871 11.3573 13.7145Z" fill="white"/>
</g>
<defs>
<clipPath id="clip0_31_13511">
<rect width="24" height="24" fill="white"/>
</clipPath>
</defs>
</svg>

<svg xmlns="http://www.w3.org/2000/svg" width="24" height="24" fill="none" viewBox="0 0 24 24"><g clip-path="url(#a)"><path fill="#77D563" d="M0 0h24v24H0z"/><path fill="#fff" d="M10.607 4.809c-2.301.458-2.297 1.29-2.293 2.271v.12l.806-.154c-.064-.429.163-1.226 1.586-1.5 1.397-.274 1.809.403 1.856.857l.771-.146c.017-.668-.51-1.89-2.726-1.448M7.05 13.766l-1.757 1.77-.823-4.414zM5.53 16.83l-.116-.63 2.027-2.035 3.532 3.62-3.18.61a1.937 1.937 0 0 1-2.263-1.565m10.491-.004-4.393.831-.793-.814 2.632-2.64 2.554 2.614zm2.117-.403-1.461.279-2.82-2.889 2.679-2.687 3.18 3.317a1.955 1.955 0 0 1-1.578 1.972zm.579-7.483.844 4.543-2.631-2.751zm-.244-1.32.12.656-2.049 2.057-2.584-2.709 1.397-1.405.857-.163a1.937 1.937 0 0 1 2.259 1.564m-10.629.03 6.544-1.243-3.921 3.93L7.847 7.65zm-1.98.382 1.329-.258 2.884 2.958-2.632 2.64-3.15-3.223a1.96 1.96 0 0 1 1.57-2.117m7.702-.013 2.588 2.704-2.683 2.691-2.614-2.678zm-2.208 5.695a.857.857 0 1 1-1.715 0 .857.857 0 0 1 1.715 0"/></g><defs><clipPath id="a"><path fill="#fff" d="M0 0h24v24H0z"/></clipPath></defs></svg>
